!!! OTL: Literature106
!!! Chapter: 5
!!! Section: III
!!! Page: 369
!!! Mode: 
!!! Encoder: DJB
**kern
*staff1
*I"Piano
=1-
*clefG2
*k[b-]
*F:
*M2/4
4r
8r
16a\LL
16cc\JJ
=2
8ff\L
16cc\L
16a\JJ
8f/L
16a/L
16cc/JJ
=3
8ee\L
16cc\L
16a\JJ
8f/L
16g/L
16a/JJ
=4
16b-\LL
16cc\
16dd\
16ee\JJ
16dd\LL
16cc\
16b-\
16cc\JJ
=5
16dd\LL
16ee\
16dd\
16cc\JJ
8f/L
16a/L
16cc/JJ
=6
8ff\L
16cc\L
16a\JJ
8f/L
16a/L
16cc/JJ
=7
8ee\L
16cc\L
16a\JJ
8f/L
16a/L
16b-/JJ
=8
!!linebreak:original
16cc\LL
16dd\
16ee\
16cc\JJ
16g/LL
16a/
16b-/
16cc/JJ
=9
16dd\LL
16ee\
16cc\
16g\JJ
4f/
==
*-
